X:1
T:Title
%%score { ( 1 4 5 ) | ( 2 3 ) }
L:1/8
Q:1/4=100
M:4/4
K:Eb
V:1 treble nm="Grand Piano"
V:4 treble 
V:5 treble 
V:2 bass 
V:3 bass 
V:1
 G3 G F2 E2 | c4 B4 | [Ge]3 B G2 E2 | F6 z2 | [DF]3 [DF] [DF]2 [EG]2 | [FA]4 [DF]4 | %6
w: H.~C.~Blosser * * *||||||
 [Fd]3 c B2 =A2 | [DB]6 z2 | [DA]3 [DA] [DA]2 F2 | G4 B4 | c3 c c2 e2 | [Fd]6 z2 | %12
w: ||||||
 [Ge]3 [GB] [EG]2 [GB]2 | [Ge]2 d2 c2 A2 | [EG]3 [FA] [B,EG]2 [A,DF]2 | [G,E]6 z2 | [GB]6 z2 | %17
w: |||||
 [GB]4 z4 | [Ac]6 z2 | [GB]6 z2 | [FA]6 z2 | [DF]4 z4 | [Fd]6 z2 | [EG]6 z2 | [GB]6 z2 | [GB]4 z4 | %26
w: |||||||||
 [Ge]6 z2 | [Ac]6 z2 | [Af]6 z2 | [GB]4 z4 | e3 d [Ac]2 [Ad]2 | [Ge]6 z2 |] %32
w: ||||||
V:2
 [E,B,E]3 [E,B,E] [E,A,D]2 [E,G,]2 | [E,A,E]4 [E,G,E]4 | [E,B,]3 [E,G,E] [E,B,E]2 [G,B,]2 | %3
 [B,D]6 z2 | [B,,B,]3 [B,,B,] [B,,B,]2 [B,,B,]2 | [B,,B,]4 [B,,B,]4 | %6
 [B,,B,]3 [E,G,E] [F,D]2 [F,E]2 | [B,,F,]6 z2 | [B,,F,]3 [B,,F,] [B,,B,]2 [D,B,]2 | %9
 [E,B,]4 [G,B,E]4 | [A,E]3 [A,E] [F,A,F]2 [F,=A,F]2 | [B,,B,]6 z2 | %12
 [E,B,]3 [E,B,] [E,B,]2 [E,B,]2 | [E,G,]2 [G,B,F]2 [CE]2- [F,CE]2 | B,3 B, B,,2 B,,2 | E,6 z2 | %16
 E,2 E,2 z z/ E/ B,>E | E,2 E,2[K:treble] [G,B,G]2 B,2 | A,2 A,2 z z/ A/ z z/ A/ | E,2 E,2 E,2 z2 | %20
 B,,2 B,,2 z z/ D/ z z/ C/ | B,,2 D,2 [F,B,D]2 D,2 | [B,,B,]2 D,2 z z/ A/ [D,B,]2 | %23
 [E,B,]2 E,2 E,2 z2 | E,2 E,2 z z/ E/ B,>E | E,2 E,2 [G,B,G]2 F,2 | E,2 E,2 z z/[K:treble] G/ E>G | %27
 A,2 G,2[K:bass] F,2 z2 | [B,,C]2 C,2 z z/[K:treble] c/[K:bass] [B,,F,]2 | %29
 [E,G,]2 F,2[K:treble] [G,B,G]2 A,2 | [B,G]3 [B,B][K:bass] [B,,B,]2 [B,,B,]2 | [E,B,]6 z2 |] %32
V:3
 x8 | x8 | x8 | x8 | x8 | x8 | x8 | x8 | x8 | x8 | x8 | x8 | x8 | z4 A,2 z2 | x8 | x8 | %16
 z4 E,2 [E,G,]2 | x4[K:treble] x4 | z4 A,2 A,2 | x8 | z4 B,,2 B,,2 | x8 | z4 F,2 z2 | x8 | %24
 z4 E,2 [E,G,]2 | x8 | z4 E,2[K:treble] [E,B,]2 | x4[K:bass] x4 | z4 D,2[K:treble][K:bass] z2 | %29
 x4[K:treble] x4 | x4[K:bass] x4 | x8 |] %32
V:4
 x8 | x8 | x8 | x8 | x8 | x8 | x8 | x8 | x8 | x8 | x8 | x8 | x8 | x8 | x8 | x8 | %16
 B,2 B,2 z z/ G/ E>G | z2 G,2 e2 E2 | E2 E2 C2 [ce]>c | B,2 B,2 B,2 z2 | B,2 B,2 z z/ F/ [B,D]>E | %21
 B,2 B,2 A2 B,2 | z2 B,2 z z/ c/ [GB]>[FA] | z2 B,2 B,2 z2 | B,2 B,2 z z/ G/ E>G | z2 G,2 e2 D2 | %26
 E2 G,2 z z/ B/ G>B | z2 B,2 C2 z2 | z2 E2 z z/ e/ [Bd]>[Ac] | z2 A,2 e2 C2 | x8 | x8 |] %32
V:5
 x8 | x8 | x8 | x8 | x8 | x8 | x8 | x8 | x8 | x8 | x8 | x8 | x8 | x8 | x8 | x8 | z4 B,2 z2 | x8 | %18
 x8 | x8 | z4 B,2 z2 | x8 | z4 B,2 z2 | x8 | z4 B,2 z2 | x8 | z4 B,2 z2 | x8 | z4 F2 z2 | x8 | x8 | %31
 x8 |] %32

